svg/other/screwdriver_fill.svg

<svg xmlns="http://www.w3.org/2000/svg" width="24" height="24" viewBox="0 0 24 24"><g fill="none" fill-rule="evenodd"><path d="M24,0 L24,24 L0,24 L0,0 L24,0 Z M12.5935,23.2578 L12.5819,23.2595 L12.5109,23.295 L12.4919,23.2987 L12.4767,23.295 L12.4057,23.2595 C12.3958,23.2564 12.387,23.259 12.3821,23.2649 L12.378,23.2758 L12.3609,23.7031 L12.3659,23.7235 L12.3769,23.7357 L12.4805,23.8097 L12.4953,23.8136 L12.5071,23.8097 L12.6107,23.7357 L12.6233,23.7197 L12.6267,23.7031 L12.6096,23.2758 C12.6076,23.2657 12.601,23.2593 12.5935,23.2578 Z M12.8584,23.1453 L12.8445,23.1473 L12.6598,23.2397 L12.6499,23.2499 L12.6472,23.2611 L12.6651,23.6906 L12.6699,23.7034 L12.6784,23.7105 L12.8793,23.8032 C12.8914,23.8069 12.9022,23.803 12.9078,23.7952 L12.9118,23.7812 L12.8777,23.1665 C12.8753,23.1546 12.8674,23.147 12.8584,23.1453 Z M12.143,23.1473 C12.1332,23.1424 12.1222,23.1453 12.1156,23.1526 L12.1099,23.1665 L12.0758,23.7812 C12.0751,23.7927 12.0828,23.8019 12.0926,23.8046 L12.1083,23.8032 L12.3092,23.7105 L12.3186,23.7024 L12.3225,23.6906 L12.3404,23.2611 L12.3372,23.2485 L12.3278,23.2397 L12.143,23.1473 Z"/><path fill="#09244B" d="M19.2639,3.36421 C19.6574,3.12812 20.1611,3.19013 20.4855,3.51459 L20.4926,3.52167 C20.8183,3.84738 20.8794,4.35344 20.6405,4.7473 L19.5728,6.508 C19.4136,6.77059 19.1425,6.94546 18.8376,6.98226 C18.7092,6.99776 18.5807,6.98805 18.4589,6.95538 L14.8287,10.5856 L15.2429,10.9998 C16.1941,11.9511 16.168,13.489 15.2337,14.4233 C14.7921,14.8649 14.1867,15.1212 13.5541,15.1212 C13.4139,15.1212 13.2858,15.2004 13.2231,15.3257 L12.3327,17.1065 C12.1885,17.3949 11.9988,17.6582 11.7708,17.8862 L8.46473,21.1922 C7.29316,22.3638 5.39367,22.3638 4.22209,21.1922 L2.80788,19.778 C1.63631,18.6064 1.63631,16.707 2.80788,15.5354 L6.11392,12.2293 C6.34192,12.0013 6.60519,11.8116 6.8936,11.6674 L8.6744,10.777 C8.79976,10.7143 8.87895,10.5862 8.87895,10.446 C8.87895,9.81342 9.13521,9.20804 9.57682,8.76644 C10.5111,7.83211 12.049,7.80597 13.0003,8.7572 L13.4144,9.17138 L17.0447,5.54112 C17.0119,5.41854 17.0022,5.28933 17.0181,5.16018 C17.0558,4.85455 17.2321,4.5833 17.4962,4.42487 L19.2639,3.36421 Z M9.17184,14.8282 C9.56236,15.2187 9.56236,15.8519 9.17184,16.2424 L7.05052,18.3638 C6.65999,18.7543 6.02683,18.7543 5.6363,18.3638 C5.24578,17.9732 5.24578,17.3401 5.6363,16.9495 L7.75762,14.8282 C8.14815,14.4377 8.78131,14.4377 9.17184,14.8282 Z"/></g></svg>

<svg xmlns="http://www.w3.org/2000/svg" width="24" height="24"><g fill="none" fill-rule="evenodd"><path d="M24 0v24H0V0zM12.594 23.258l-.012.002-.071.035-.02.004-.014-.004-.071-.036c-.01-.003-.019 0-.024.006l-.004.01-.017.428.005.02.01.013.104.074.015.004.012-.004.104-.074.012-.016.004-.017-.017-.427c-.002-.01-.009-.017-.016-.018m.264-.113-.014.002-.184.093-.01.01-.003.011.018.43.005.012.008.008.201.092c.012.004.023 0 .029-.008l.004-.014-.034-.614c-.003-.012-.01-.02-.02-.022m-.715.002a.023.023 0 0 0-.027.006l-.006.014-.034.614c0 .012.007.02.017.024l.015-.002.201-.093.01-.008.003-.011.018-.43-.003-.012-.01-.01z"/><path fill="#09244B" d="M19.264 3.364a1 1 0 0 1 1.221.15l.008.008a1 1 0 0 1 .148 1.225l-1.068 1.761a1 1 0 0 1-1.114.447l-3.63 3.63.414.415c.951.951.925 2.489-.01 3.423a2.382 2.382 0 0 1-1.679.698.37.37 0 0 0-.33.205l-.891 1.78a3 3 0 0 1-.562.78l-3.306 3.306a3 3 0 0 1-4.243 0l-1.414-1.414a3 3 0 0 1 0-4.243l3.306-3.306a3 3 0 0 1 .78-.562l1.78-.89a.37.37 0 0 0 .205-.331c0-.633.256-1.238.698-1.68.934-.934 2.472-.96 3.423-.009l.414.414 3.63-3.63a1 1 0 0 1 .452-1.116zM9.172 14.828a1 1 0 0 1 0 1.414L7.05 18.364a1 1 0 0 1-1.415-1.415l2.122-2.12a1 1 0 0 1 1.414 0"/></g></svg>
